views/1/public/assets/trust.svg

<svg fill="none" height="79" viewBox="0 0 79 79" width="79" xmlns="http://www.w3.org/2000/svg" xmlns:xlink="http://www.w3.org/1999/xlink"><filter id="a" color-interpolation-filters="sRGB" height="85" width="85" x="-3" y="-3"><feFlood flood-opacity="0" result="BackgroundImageFix"/><feBlend in="SourceGraphic" in2="BackgroundImageFix" mode="normal" result="shape"/><feGaussianBlur result="effect1_foregroundBlur_203_99" stdDeviation="15"/></filter><clipPath id="b"><path d="m0 0h79v79h-79z"/></clipPath><mask id="c" height="79" maskUnits="userSpaceOnUse" width="79" x="0" y="0"><path d="m79 0h-79v79h79z" fill="#fff"/></mask><g clip-path="url(#b)"><g mask="url(#c)"><path d="m39.5 79c21.8152 0 39.5-17.6848 39.5-39.5s-17.6848-39.5-39.5-39.5-39.5 17.6848-39.5 39.5 17.6848 39.5 39.5 39.5z" fill="#fff" fill-opacity=".01"/><g filter="url(#a)"><circle cx="39.5" cy="39.5" fill="#3abc80" r="12.5"/></g><path clip-rule="evenodd" d="m27.94 35.7659v-8.3958h23.125v8.3958c0 11.211-9.3192 15.0771-11.5625 15.8435-2.2433-.7664-11.5625-4.6325-11.5625-15.8435zm-.3125-11.3958c-.7128 0-1.3964.2831-1.9004.7872-.504.504-.7871 1.1875-.7871 1.9003v8.7083c0 13.5285 11.5097 17.9913 13.7193 18.7251.5468.1858 1.1396.1858 1.6864 0 2.2096-.7338 13.7193-5.1966 13.7193-18.7251v-8.7083c0-.7128-.2832-1.3963-.7872-1.9003-.504-.5041-1.1875-.7872-1.9003-.7872zm19.4419 10.8975c.5993-.572.6214-1.5215.0494-2.1207-.572-.5993-1.5215-.6213-2.1208-.0493l-7.6726 7.3238-3.3184-3.1676c-.5993-.572-1.5488-.5499-2.1208.0493-.572.5993-.5499 1.5488.0493 2.1208l4.3541 4.1562c.5797.5533 1.4918.5533 2.0715 0z" fill="#3abc80" fill-rule="evenodd"/><path d="m79 39.5c0-21.8152-17.6848-39.5-39.5-39.5s-39.5 17.6848-39.5 39.5 17.6848 39.5 39.5 39.5 39.5-17.6848 39.5-39.5z" fill="#fff" fill-opacity=".06"/></g></g></svg>

<?xml version="1.0" encoding="UTF-8"?> <svg xmlns="http://www.w3.org/2000/svg" width="79" height="79" viewBox="0 0 79 79" fill="none"><g clip-path="url(#clip0_203_99)"><mask id="mask0_203_99" style="mask-type:luminance" maskUnits="userSpaceOnUse" x="0" y="0" width="79" height="79"><path d="M79 0H0V79H79V0Z" fill="white"></path></mask><g mask="url(#mask0_203_99)"><path d="M39.5 79C61.3152 79 79 61.3152 79 39.5C79 17.6848 61.3152 0 39.5 0C17.6848 0 0 17.6848 0 39.5C0 61.3152 17.6848 79 39.5 79Z" fill="white" fill-opacity="0.01"></path><g filter="url(#filter0_f_203_99)"><circle cx="39.5" cy="39.5" r="12.5" fill="#3ABC80"></circle></g><path fill-rule="evenodd" clip-rule="evenodd" d="M27.94 35.7659V27.3701H51.065V35.7659C51.065 46.9769 41.7458 50.843 39.5025 51.6094C37.2592 50.843 27.94 46.9769 27.94 35.7659ZM27.6275 24.3701C26.9147 24.3701 26.2311 24.6532 25.7271 25.1573C25.2231 25.6613 24.94 26.3448 24.94 27.0576V35.7659C24.94 49.2944 36.4497 53.7572 38.6593 54.491C39.2061 54.6768 39.7989 54.6768 40.3457 54.491C42.5553 53.7572 54.065 49.2944 54.065 35.7659V27.0576C54.065 26.3448 53.7818 25.6613 53.2778 25.1573C52.7738 24.6532 52.0903 24.3701 51.3775 24.3701H27.6275ZM47.0694 35.2676C47.6687 34.6956 47.6908 33.7461 47.1188 33.1469C46.5468 32.5476 45.5973 32.5256 44.998 33.0976L37.3254 40.4214L34.007 37.2538C33.4077 36.6818 32.4582 36.7039 31.8862 37.3031C31.3142 37.9024 31.3363 38.8519 31.9355 39.4239L36.2896 43.5801C36.8693 44.1334 37.7814 44.1334 38.3611 43.5801L47.0694 35.2676Z" fill="#3ABC80"></path><path d="M79 39.5C79 17.6848 61.3152 0 39.5 0C17.6848 0 0 17.6848 0 39.5C0 61.3152 17.6848 79 39.5 79C61.3152 79 79 61.3152 79 39.5Z" fill="white" fill-opacity="0.06"></path></g></g><defs><filter id="filter0_f_203_99" x="-3" y="-3" width="85" height="85" color-interpolation-filters="sRGB"><feFlood flood-opacity="0" result="BackgroundImageFix"></feFlood><feBlend mode="normal" in="SourceGraphic" in2="BackgroundImageFix" result="shape"></feBlend><feGaussianBlur stdDeviation="15" result="effect1_foregroundBlur_203_99"></feGaussianBlur></filter><clipPath id="clip0_203_99"><rect width="79" height="79" fill="white"></rect></clipPath></defs></svg>
